SVG_Azure_Grouped/Compute/Virtual Instance for SAP.svg

<?xml version="1.0" encoding="UTF-8" standalone="no"?>
<!-- Generated by Microsoft Visio, SVG Export Virtual Instance for SAP.svg Page-1 -->

<svg
   xmlns:dc="http://purl.org/dc/elements/1.1/"
   xmlns:cc="http://creativecommons.org/ns#"
   xmlns:rdf="http://www.w3.org/1999/02/22-rdf-syntax-ns#"
   xmlns:svg="http://www.w3.org/2000/svg"
   xmlns="http://www.w3.org/2000/svg"
   xmlns:sodipodi="http://sodipodi.sourceforge.net/DTD/sodipodi-0.dtd"
   xmlns:inkscape="http://www.inkscape.org/namespaces/inkscape"
   width="0.78736138in"
   height="0.70870024in"
   viewBox="0 0 56.689928 51.026402"
   xml:space="preserve"
   class="st5"
   version="1.1"
   id="svg64"
   sodipodi:docname="Virtual Instance for SAP.svg"
   style="font-size:12px;overflow:visible;color-interpolation-filters:sRGB;fill:none;fill-rule:evenodd;stroke-linecap:square;stroke-miterlimit:3"
   inkscape:version="0.92.5 (2060ec1f9f, 2020-04-08)"><metadata
   id="metadata68"><rdf:RDF><cc:Work
       rdf:about=""><dc:format>image/svg+xml</dc:format><dc:type
         rdf:resource="http://purl.org/dc/dcmitype/StillImage" /></cc:Work></rdf:RDF></metadata><sodipodi:namedview
   pagecolor="#ffffff"
   bordercolor="#666666"
   borderopacity="1"
   objecttolerance="10"
   gridtolerance="10"
   guidetolerance="10"
   inkscape:pageopacity="0"
   inkscape:pageshadow="2"
   inkscape:window-width="640"
   inkscape:window-height="480"
   id="namedview66"
   showgrid="false"
   inkscape:zoom="1.4869072"
   inkscape:cx="37.795348"
   inkscape:cy="34.006413"
   inkscape:window-x="0"
   inkscape:window-y="0"
   inkscape:window-maximized="0"
   inkscape:current-layer="svg64" />
	<style
   type="text/css"
   id="style2">
	<![CDATA[
		.st1 {fill:url(#grad0-6);stroke:none;stroke-linecap:butt;stroke-width:34}
		.st2 {fill:url(#grad0-10);stroke:none;stroke-linecap:butt;stroke-width:34}
		.st3 {fill:url(#grad0-14);stroke:none;stroke-linecap:butt;stroke-width:34}
		.st4 {fill:#ffffff;stroke:none;stroke-linecap:butt;stroke-width:34}
		.st5 {fill:none;fill-rule:evenodd;font-size:12px;overflow:visible;stroke-linecap:square;stroke-miterlimit:3}
	]]>
	</style>

	<defs
   id="Patterns_And_Gradients">
		<linearGradient
   id="grad0-6"
   x1="0"
   y1="102.02082"
   x2="45.687261"
   y2="102.02082"
   gradientTransform="scale(1.2408273,0.80591393)"
   gradientUnits="userSpaceOnUse">
			<stop
   offset="0"
   stop-color="#003067"
   stop-opacity="1"
   id="stop4" />
			<stop
   offset="0.035"
   stop-color="#00346c"
   stop-opacity="1"
   id="stop6" />
			<stop
   offset="0.24"
   stop-color="#004583"
   stop-opacity="1"
   id="stop8" />
			<stop
   offset="0.455"
   stop-color="#005194"
   stop-opacity="1"
   id="stop10" />
			<stop
   offset="0.695"
   stop-color="#00599e"
   stop-opacity="1"
   id="stop12" />
			<stop
   offset="1"
   stop-color="#005ba1"
   stop-opacity="1"
   id="stop14" />
		</linearGradient>
		<linearGradient
   id="grad0-10"
   x1="-5.7605741e-05"
   y1="148.06972"
   x2="20.071208"
   y2="148.06972"
   gradientTransform="scale(1.4124747,0.70797728)"
   gradientUnits="userSpaceOnUse">
			<stop
   offset="0.15"
   stop-color="#cccccc"
   stop-opacity="1"
   id="stop17" />
			<stop
   offset="1"
   stop-color="#707070"
   stop-opacity="1"
   id="stop19" />
		</linearGradient>
		<linearGradient
   id="grad0-14"
   x1="0"
   y1="140.40779"
   x2="31.08968"
   y2="140.40779"
   gradientTransform="scale(1.440671,0.69412101)"
   gradientUnits="userSpaceOnUse">
			<stop
   offset="0"
   stop-color="#00aeef"
   stop-opacity="1"
   id="stop22" />
			<stop
   offset="0.21"
   stop-color="#0097dc"
   stop-opacity="1"
   id="stop24" />
			<stop
   offset="0.52"
   stop-color="#007cc5"
   stop-opacity="1"
   id="stop26" />
			<stop
   offset="0.79"
   stop-color="#006cb8"
   stop-opacity="1"
   id="stop28" />
			<stop
   offset="1"
   stop-color="#0066b3"
   stop-opacity="1"
   id="stop30" />
		</linearGradient>
	</defs>
	<g
   id="g62"
   transform="translate(-34.000079,-33.9979)">
		<title
   id="title34">Page-1</title>
		<g
   id="group11137-1"
   transform="translate(34,-34.0157)">
			<title
   id="title36">Virtual Instance for SAP.11137</title>
			<g
   id="group11138-2">
				<title
   id="title38">Sheet.11138</title>
				<g
   id="shape11139-3"
   transform="translate(0,-14.2064)">
					<title
   id="title40">Sheet.11139</title>
					<path
   d="m 0,117.2 a 1.89092,1.84204 -180 0 0 1.89,1.84 H 54.8 a 1.89092,1.84204 -180 0 0 1.89,-1.84 V 84.06 A 1.89092,1.84204 -180 0 0 54.8,82.22 H 1.89 A 1.89092,1.84204 -180 0 0 0,84.06 Z"
   class="st1"
   id="path42"
   inkscape:connector-curvature="0"
   style="fill:url(#grad0-6);stroke:none;stroke-width:34;stroke-linecap:butt" />
				</g>
				<g
   id="shape11140-7"
   transform="translate(14.1732)">
					<title
   id="title45">Sheet.11140</title>
					<path
   d="m 25.54,115.97 c -5.6,-0.86 -5.82,-4.79 -5.82,-11.14 H 8.6 c 0,6.35 -0.19,10.28 -5.8,11.14 A 3.14812,3.06675 -180 0 0 0,119.04 h 28.35 a 3.14812,3.06675 -180 0 0 -2.81,-3.07 z"
   class="st2"
   id="path47"
   inkscape:connector-curvature="0"
   style="fill:url(#grad0-10);stroke:none;stroke-width:34;stroke-linecap:butt" />
				</g>
				<g
   id="shape11141-11"
   transform="translate(6.42631,-22.1722)">
					<title
   id="title50">Sheet.11141</title>
					<path
   d="M 0,119.04 H 22.64 L 44.79,97.46 H 0 Z"
   class="st3"
   id="path52"
   inkscape:connector-curvature="0"
   style="fill:url(#grad0-14);stroke:none;stroke-width:34;stroke-linecap:butt" />
				</g>
				<g
   id="shape11142-15"
   transform="translate(7.03993,-26.0186)">
					<title
   id="title55">Sheet.11142</title>
					<path
   d="m 25.98,105.62 h -4.44 l 0.02,10.13 -3.85,-10.14 h -3.82 l -3.29,8.47 c -0.35,-2.16 -2.63,-2.9 -4.43,-3.45 -1.19,-0.38 -2.45,-0.92 -2.44,-1.53 0,-0.49 0.67,-0.95 2,-0.89 a 7.24002,7.05286 0 0 1 3.23,0.86 l 1.53,-2.6 a 11.9689,11.6595 -180 0 0 -5,-1.15 6.07615,5.91908 -180 0 0 -4.42,1.56 3.73173,3.63526 -180 0 0 -1.06,2.5 3.45493,3.36562 -180 0 0 1.52,3 10.3615,10.0936 -180 0 0 3,1.34 c 1.22,0.37 2.22,0.69 2.21,1.37 a 1.04715,1.02008 0 0 1 -0.29,0.67 1.93756,1.88748 0 0 1 -1.42,0.44 6.08615,5.92882 0 0 1 -3.67,-1.02 L 0,117.81 a 9.47772,9.23272 -180 0 0 4.82,1.23 h 0.4 a 6.00278,5.84761 -180 0 0 3.79,-1.17 l 0.17,-0.13 -0.16,0.83 h 3.74 l 0.66,-1.67 a 7.62686,7.42971 -180 0 0 4.67,0.02 l 0.47,1.65 h 6.7 v -3.81 h 1.42 c 3.44,0 5.48,-1.7 5.48,-4.57 0,-3.19 -1.98,-4.58 -6.19,-4.58 z m -10.2,8.66 a 4.00185,3.8984 0 0 1 -1.41,-0.24 l 1.39,-4.3 h 0.03 l 1.37,4.31 a 4.17193,4.06409 0 0 1 -1.38,0.23 z m 10.45,-2.47 h -0.97 v -3.46 h 0.97 c 1.29,0 2.33,0.42 2.33,1.71 0,1.29 -1.03,1.75 -2.33,1.75 z"
   class="st4"
   id="path57"
   inkscape:connector-curvature="0"
   style="fill:#ffffff;stroke:none;stroke-width:34;stroke-linecap:butt" />
				</g>
			</g>
		</g>
	</g>
</svg>

<?xml version="1.0" encoding="UTF-8" standalone="no"?>
<!DOCTYPE svg PUBLIC "-//W3C//DTD SVG 1.1//EN" "http://www.w3.org/Graphics/SVG/1.1/DTD/svg11.dtd">
<!-- Generated by Microsoft Visio, SVG Export Virtual Instance for SAP.svg Page-1 -->
<svg xmlns="http://www.w3.org/2000/svg" xmlns:xlink="http://www.w3.org/1999/xlink" xmlns:ev="http://www.w3.org/2001/xml-events"
		width="1.73185in" height="1.65332in" viewBox="0 0 124.693 119.039" xml:space="preserve" color-interpolation-filters="sRGB"
		class="st5">
	<style type="text/css">
	<![CDATA[
		.st1 {fill:url(#grad0-6);stroke:none;stroke-linecap:butt;stroke-width:34}
		.st2 {fill:url(#grad0-10);stroke:none;stroke-linecap:butt;stroke-width:34}
		.st3 {fill:url(#grad0-14);stroke:none;stroke-linecap:butt;stroke-width:34}
		.st4 {fill:#ffffff;stroke:none;stroke-linecap:butt;stroke-width:34}
		.st5 {fill:none;fill-rule:evenodd;font-size:12px;overflow:visible;stroke-linecap:square;stroke-miterlimit:3}
	]]>
	</style>

	<defs id="Patterns_And_Gradients">
		<linearGradient id="grad0-6" x1="0" y1="0" x2="1" y2="0" gradientTransform="rotate(-90 0.5 0.5)">
			<stop offset="0" stop-color="#003067" stop-opacity="1"/>
			<stop offset="0.035" stop-color="#00346c" stop-opacity="1"/>
			<stop offset="0.24" stop-color="#004583" stop-opacity="1"/>
			<stop offset="0.455" stop-color="#005194" stop-opacity="1"/>
			<stop offset="0.695" stop-color="#00599e" stop-opacity="1"/>
			<stop offset="1" stop-color="#005ba1" stop-opacity="1"/>
		</linearGradient>
		<linearGradient id="grad0-10" x1="0" y1="0" x2="1" y2="0" gradientTransform="rotate(-90 0.5 0.5)">
			<stop offset="0.15" stop-color="#cccccc" stop-opacity="1"/>
			<stop offset="1" stop-color="#707070" stop-opacity="1"/>
		</linearGradient>
		<linearGradient id="grad0-14" x1="0" y1="0" x2="1" y2="0" gradientTransform="rotate(90 0.5 0.5)">
			<stop offset="0" stop-color="#00aeef" stop-opacity="1"/>
			<stop offset="0.21" stop-color="#0097dc" stop-opacity="1"/>
			<stop offset="0.52" stop-color="#007cc5" stop-opacity="1"/>
			<stop offset="0.79" stop-color="#006cb8" stop-opacity="1"/>
			<stop offset="1" stop-color="#0066b3" stop-opacity="1"/>
		</linearGradient>
	</defs>
	<g>
		<title>Page-1</title>
		<g id="group10899-1" transform="translate(34,-34.0157)">
			<title>Virtual Instance for SAP.10899</title>
			<g id="group10900-2">
				<title>Sheet.10900</title>
				<g id="shape10901-3" transform="translate(0,-14.2064)">
					<title>Sheet.10901</title>
					<path d="M0 117.2 A1.89092 1.84204 -180 0 0 1.89 119.04 L54.8 119.04 A1.89092 1.84204 -180 0 0 56.69 117.2 L56.69
								 84.06 A1.89092 1.84204 -180 0 0 54.8 82.22 L1.89 82.22 A1.89092 1.84204 -180 0 0 0 84.06 L0 117.2
								 Z" class="st1"/>
				</g>
				<g id="shape10902-7" transform="translate(14.1732,0)">
					<title>Sheet.10902</title>
					<path d="M25.54 115.97 C19.94 115.11 19.72 111.18 19.72 104.83 L8.6 104.83 C8.6 111.18 8.41 115.11 2.8 115.97
								 A3.14812 3.06675 -180 0 0 0 119.04 L28.35 119.04 A3.14812 3.06675 -180 0 0 25.54 115.97 Z"
							class="st2"/>
				</g>
				<g id="shape10903-11" transform="translate(6.42631,-22.1722)">
					<title>Sheet.10903</title>
					<path d="M0 119.04 L22.64 119.04 L44.79 97.46 L0 97.46 L0 119.04 Z" class="st3"/>
				</g>
				<g id="shape10904-15" transform="translate(7.03993,-26.0186)">
					<title>Sheet.10904</title>
					<path d="M25.98 105.62 L21.54 105.62 L21.56 115.75 L17.71 105.61 L13.89 105.61 L10.6 114.08 C10.25 111.92 7.97
								 111.18 6.17 110.63 C4.98 110.25 3.72 109.71 3.73 109.1 C3.73 108.61 4.4 108.15 5.73 108.21 A7.24002
								 7.05286 0 0 1 8.96 109.07 L10.49 106.47 A11.9689 11.6595 -180 0 0 5.49 105.32 A6.07615 5.91908 -180
								 0 0 1.07 106.88 A3.73173 3.63526 -180 0 0 0.01 109.38 A3.45493 3.36562 -180 0 0 1.53 112.38 A10.3615
								 10.0936 -180 0 0 4.53 113.72 C5.75 114.09 6.75 114.41 6.74 115.09 A1.04715 1.02008 0 0 1 6.45 115.76
								 A1.93756 1.88748 0 0 1 5.03 116.2 A6.08615 5.92882 0 0 1 1.36 115.18 L0 117.81 A9.47772 9.23272
								 -180 0 0 4.82 119.04 L5.22 119.04 A6.00278 5.84761 -180 0 0 9.01 117.87 L9.18 117.74 L9.02 118.57
								 L12.76 118.57 L13.42 116.9 A7.62686 7.42971 -180 0 0 18.09 116.92 L18.56 118.57 L25.26 118.57 L25.26
								 114.76 L26.68 114.76 C30.12 114.76 32.16 113.06 32.16 110.19 C32.16 107 30.18 105.61 25.97 105.61
								 L25.98 105.62 ZM15.78 114.28 A4.00185 3.8984 0 0 1 14.37 114.04 L15.76 109.74 L15.79 109.74 L17.16
								 114.05 A4.17193 4.06409 0 0 1 15.78 114.28 ZM26.23 111.81 L25.26 111.81 L25.26 108.35 L26.23 108.35
								 C27.52 108.35 28.56 108.77 28.56 110.06 C28.56 111.35 27.53 111.81 26.23 111.81 Z" class="st4"/>
				</g>
			</g>
		</g>
	</g>
</svg>
